src/assets/img/icons/dark/icon-graphic.svg

<svg width="29" height="17" viewBox="0 0 29 17" fill="none" xmlns="http://www.w3.org/2000/svg">
<path d="M22.1859 0.167556C22.0491 -0.0239367 21.7482 -0.0512925 21.5567 0.0854877L17.125 3.61442L11.4076 1.23444C11.2708 1.17973 11.1067 1.20709 10.9972 1.28915L4.86949 5.66612C4.67799 5.8029 4.62328 6.07646 4.76006 6.26795C4.84213 6.40473 4.97891 6.45944 5.11569 6.45944C5.19776 6.45944 5.27983 6.43209 5.3619 6.37737L11.2982 2.13719L17.0429 4.51716C17.1797 4.57188 17.3712 4.54452 17.4806 4.46245L22.1038 0.796744C22.2953 0.659964 22.3226 0.359048 22.1859 0.167556Z" fill="#AAAAAA"/>
<path d="M28.5871 15.1587H26.5627V2.49287C26.5627 2.24667 26.3712 2.05518 26.125 2.05518H22.1037C21.8575 2.05518 21.666 2.24667 21.666 2.49287V15.1587H20.1888V6.86984C20.1888 6.62363 19.9973 6.43214 19.7511 6.43214H15.7024C15.4562 6.43214 15.2647 6.62363 15.2647 6.86984V15.1587H13.7874V6.21329C13.7874 5.96709 13.5959 5.7756 13.3497 5.7756H9.32841C9.0822 5.7756 8.89071 5.96709 8.89071 6.21329V15.1587H7.41348V8.78476C7.41348 8.53856 7.22199 8.34706 6.97579 8.34706H2.9271C2.68089 8.34706 2.4894 8.53856 2.4894 8.78476V15.1587H0.437697C0.191492 15.1587 0 15.3502 0 15.5964C0 15.8426 0.191492 16.0341 0.437697 16.0341H2.89974H6.92108H9.32841H13.3497H15.7024H19.7237H22.0763H26.0977H28.5597C28.8059 16.0341 28.9974 15.8426 28.9974 15.5964C29.0247 15.3502 28.8333 15.1587 28.5871 15.1587ZM6.51074 15.1587H3.36479V9.22246H6.51074V15.1587ZM12.912 15.1587H9.7661V6.65099H12.912V15.1587ZM19.286 15.1587H16.1401V7.30753H19.286V15.1587ZM25.6873 15.1587H22.5414V2.93057H25.6873V15.1587Z" fill="#AAAAAA"/>
</svg>

<svg xmlns="http://www.w3.org/2000/svg" width="29" height="17" fill="none"><path fill="#AAA" d="M22.19.17c-.14-.2-.44-.22-.63-.08L17.13 3.6 11.4 1.23a.44.44 0 00-.41.06L4.87 5.67a.44.44 0 00-.11.6c.08.13.22.19.36.19.08 0 .16-.03.24-.08l5.94-4.24 5.74 2.38a.5.5 0 00.44-.06L22.1.8c.2-.14.22-.44.09-.63z"/><path fill="#AAA" d="M28.59 15.16h-2.03V2.49c0-.24-.19-.43-.43-.43H22.1c-.24 0-.43.19-.43.43v12.67h-1.48V6.87c0-.25-.2-.44-.44-.44H15.7c-.24 0-.44.2-.44.44v8.29H13.8V6.2c0-.24-.2-.43-.44-.43H9.33c-.25 0-.44.19-.44.43v8.95H7.41V8.78c0-.24-.19-.43-.43-.43H2.93c-.25 0-.44.19-.44.43v6.38H.44c-.25 0-.44.19-.44.44 0 .24.2.43.44.43h28.12c.25 0 .44-.19.44-.43.02-.25-.17-.44-.41-.44zm-22.08 0H3.36V9.22h3.15v5.94zm6.4 0H9.77v-8.5h3.14v8.5zm6.38 0h-3.15V7.3h3.15v7.85zm6.4 0h-3.15V2.93h3.15v12.23z"/></svg>
